X: 108
T: No_67_Healing_Song_from_the_Spirit_Women_(a).krn
N: Derived from No_67_Healing_Song_from_the_Spirit_Women_(a).krn
%%abc-version 2.0
%%abcx-abcm2ps-target-version 5.9.1 (29 Sep 2008)
%%abc-creator hum2abc beta
%%abcx-conversion-date 2019/03/15 08:35:45
%%humdrum-veritas 3989586185
%%humdrum-veritas-data 1304263387
%%linebreak <none>
%%barnumbers 0
L: 1/16
M: 3/4
K: D clef=bass
[K:clef=bass][M:3/4]z8z2 z B, | 
B,3A,A,4F, z A,A, ||  
[M:2/4]A,3F, F,3E, | 
E,4z2 F,E, ||  
[M:3/4]E,3D,B,,4B,, z A,A, ||  
[M:2/4]A,3F, F,3E, ||  
[M:3/4]E,4E,4z2 G,E, | 
E,3D,B,,4B,, z B,,B,, | 
B,,4A,,4F,,4 |]  



